X: 28732
T: My Former Wife
R: jig
M: 6/8
K: Adorian
EAA ABc|BAG cBc|AGE EDE|GED DED|
E2A ABc|BAB GBd|e2g gdB|BAG A2B]:|
efg a2a|bag a2g|ede g3|gba ged|
efg a2a|bag a2g|ede gdB|BAG A2c:|
BAB c2B|BAB cBA|BGE EDE|GED DED|
[1 BAB c2B|BAB GBd|ede gdB|BAG A2c:|
[2 E2A ABc|BAB GBd|e2g gdB|BAG A2G||

